!!!COM: Lassus, Orlandus
!!!OPR: Novae aliquot et ante hac non ita usitatae cantiones suavissimae
!!!ONM: 8
!!!OTL@@LA: Sancti mei
**kern	**text	**kern	**text
*staff2	*staff2	*staff1	*staff1
*I"Bassus	*	*I"Tenor	*
*I'B	*	*I'T	*
*clefF4	*	*clefC4	*
*mclefF4	*	*mclefGv2	*
*k[b-]	*	*k[b-]	*
*F:ion	*	*F:ion	*
*M2/1	*	*M2/1	*
*met(C|)	*	*met(C|)	*
=1	=1	=1	=1
2.F	San-	1r	.
4E	.	.	.
4D	.	0F	San-
4C	.	.	.
1BB-	.	.	.
=2	=2	=2	=2
.	.	.	.
4AA	.	.	.
4GG	.	.	.
2FF	.	1A	-cti
2F.	-cti	.	.
=3	=3	=3	=3
.	.	1G	me-
8EL	.	.	.
8DJ	.	.	.
2E	.	.	.
4F	me-	1F	-i,
4E	.	.	.
4D	.	.	.
4C	.	.	.
=4	=4	=4	=4
2BB-	.	1r	.
2AA.	-i,	.	.
.	.	2.c	san-
4BB-	.	.	.
2C	.	.	.
.	.	4B-	.
=5	=5	=5	=5
0FF	san-	4A	.
.	.	4G	.
.	.	1F	.
.	.	.	.
.	.	4E	.
.	.	4D	.
=6	=6	=6	=6
1AA	-cti	2C	.
.	.	2F.	-cti
1GG	me-	.	.
.	.	8EL	.
.	.	8DJ	.
.	.	2E	.
=7	=7	=7	=7
1FF	-i,	4F	me-
.	.	4G	.
.	.	4A	.
.	.	4B-	.
2r	.	1c	.
2F.	-qui	.	.
=8	=8	=8	=8
.	.	1A	-i,
4E	.	.	.
4D	.	.	.
4C	.	.	.
2BB-	.	2r	.
2BB-	in	2d.	qui
=9	=9	=9	=9
1BB-	i-	.	.
.	.	4c	.
.	.	4B-	.
.	.	4A	.
2.C	-sto	2G	.
.	.	2G	in
4D	.	.	.
=10	=10	=10	=10
4E	.	1G	i-
4F	.	.	.
2G.	.	.	.
.	.	2.A	-sto
4F	.	.	.
4F	.	.	.
8EL	.	4B-	.
8DJ	.	.	.
=11	=11	=11	=11
4E	.	2c	.
4F	.	.	.
2BB-	.	2d.	sae-
2F	sae-	.	.
.	.	4c	.
2E	-cu-	1c	.
=12	=12	=12	=12
1D	-lo	.	.
.	.	2B-	-cu-
2r	.	1c	-lo
2A	cer-	.	.
=13	=13	=13	=13
2.F	-ta-	2r	.
.	.	2c	cer-
4E	.	.	.
4F	.	2.A	-ta-
4C	.	.	.
4D	.	.	.
4E	.	4G	.
=14	=14	=14	=14
4F	.	4A	.
4G	.	4E	.
2A	.	4F	.
.	.	4G	.
2D	-men	4A	.
.	.	4B-	.
2A.	ha-	2c	.
=15	=15	=15	=15
.	.	2F	-men
4G	.	.	.
4F	.	2c.	ha-
4E	.	.	.
2.F	.	.	.
.	.	4B-	.
.	.	4A	.
4E	.	4G	.
=16	=16	=16	=16
2D	.	4A	.
.	.	4F	.
2GG	-bu-	2B-	.
2C	-i-	2G	-bu-
4BB-	.	2A.	-i-
4AA	.	.	.
=17	=17	=17	=17
1BB-	.	.	.
.	.	8GL	.
.	.	8FJ	.
.	.	2G	.
0AA	-stis,	1A	-stis,
=18	=18	=18	=18
.	.	2r	.
.	.	2c	mer-
2r	.	1c	-ce-
2F	mer-	.	.
=19	=19	=19	=19
1F	-ce-	2A	-dem
.	.	2D	la-
2D	-dem	4B-	-bo-
.	.	4A	.
2GG	la-	1B-	.
=20	=20	=20	=20
4E-X	-bo-	.	.
4D	.	.	.
2E-	.	1G	-rum
1C	-rum	.	.
.	.	1e	ve-
=21	=21	=21	=21
1G	ve-	.	.
.	.	2d.	-stro-
2.F	-stro-	.	.
.	.	8cL	.
.	.	8B-	.
.	.	8A	.
.	.	8B-J	.
8EniL	.	4c	.
8FJ	.	.	.
=22	=22	=22	=22
4G	.	1B-	.
4D	.	.	.
2G	.	.	.
2F	-rum	1A	-rum
1D	e-	.	.
=23	=23	=23	=23
.	.	1B-	e-
1BB-	-go	.	.
.	.	1G	-go
1E	red-	.	.
=24	=24	=24	=24
.	.	1c	red-
1C	-dam	.	.
.	.	2.A	-dam
2D.	vo-	.	.
.	.	4G	.
=25	=25	=25	=25
.	.	4F	.
4C	.	4E	.
4BB-	.	2D	.
4AA	.	.	.
4GG	.	2.d	vo-
4AA	.	.	.
4BB-	.	.	.
4C	.	4c	.
=26	=26	=26	=26
4D	.	4Bn	.
4E	.	4c	.
2F.	.	2A	.
.	.	1G	-bis,
8EL	.	.	.
8DJ	.	.	.
2E	.	.	.
=27	=27	=27	=27
1F	-bis,	2r	.
.	.	1A	e-
1D	e-	.	.
.	.	1F	-go
=28	=28	=28	=28
1BB-	-go	.	.
.	.	1B-	red-
1E	red-	.	.
.	.	1G	-dam
=29	=29	=29	=29
1C	-dam	.	.
.	.	2A.	vo-
1D	.	.	.
.	.	4G	.
.	.	4F	.
.	.	4E	.
=30	=30	=30	=30
2.A	vo-	4D	.
.	.	4E	.
.	.	4F	.
4G	.	4G	.
4F#X	.	4A	.
4G	.	4B-	.
4E	.	2c.	.
4F#	.	.	.
=31	=31	=31	=31
1D	.	.	.
.	.	8B-L	.
.	.	8AJ	.
.	.	2B-	.
2AA	-bis,	1c	-bis,
1A	e-	.	.
=32	=32	=32	=32
.	.	1A	e-
2F	-go,	.	.
2r	.	1F	-go
1D	e-	.	.
=33	=33	=33	=33
.	.	1.B-	red-
2BB-	-go	.	.
1E	red-	.	.
.	.	1G	-dam
=34	=34	=34	=34
1C	-dam	.	.
.	.	2A.	vo-
2.D	vo-	.	.
.	.	4G	.
.	.	4F	.
4C	.	4E	.
=35	=35	=35	=35
4BB#X	.	4D	.
4C	.	4E	.
4AA	.	2F.	.
4BB#	.	.	.
1GG	.	.	.
.	.	8EL	.
.	.	8DJ	.
.	.	2E	.
=36	=36	=36	=36
0FF	-bis.	0F	-bis.
==	==	==	==
*-	*-	*-	*-
!!!RDF**kern: l = terminal long
!!!RDF**kern: i = editorial accidental
!!!PDT: 1590
!!!PED: Adam Berg
!!!AGN: Motet; Bicinium
!!!YOR: https://mdz-nbn-resolving.de/details:bsb00090897
!!!YOO: München, Bayerische Staatsbibliothek
!!!URL-scan: https://www.digitale-sammlungen.de/view/bsb00090897?page=11 Tenor
!!!URL-scan: https://www.digitale-sammlungen.de/view/bsb00090897?page=51 Bassus
!!!IIIF: https://api.digitale-sammlungen.de/iiif/presentation/v2/bsb00090897/manifest
!!!EED: Mirko Sattig
!!!END: 2023/11/24
!!!ENC: Mirko Sattig
!!!EEV: 2024/02/10
!!!title: @{ONM}. @{OTL}
!!!system-decoration: [s1,s2]